X:1
T:Title
%%score { ( 1 4 ) | ( 2 3 ) }
L:1/8
M:4/4
K:Eb
V:1 treble nm="Grand Piano"
V:4 treble 
V:2 bass 
V:3 bass 
V:1
 z4 z2[Q:1/4=100] GA | B2 e2 e2 d2 | d2 c4 B2 | A3 G [DA]2 [DB]2 |[M:3/4] G6 |[M:1/4] G2 | %6
[M:4/4] G2 F2 E2 B2 | B2 A4 G2 | [CF]2 C2[K:bass] [F,CD]2 [F,=A,E]2 |[M:3/4][K:treble] D6 | %10
[M:1/4] F2 |[M:4/4] F3 F F2 G2 | A2 A4 A2 | E3 E E2 F2 |[M:3/4] G6 |[M:1/4] A2 | %16
[M:4/4] G2 B2 e2 d2 | [Ed]2 [Ec]4 [=EB]2 | [FA]2 C2 D2 F2 |[M:3/4] E6 |] %20
V:2
 z4 z2 B,-[F,B,D] | [G,B,E]2 [E,G,E]2 [F,A,E]2 [G,B,E]2 | [A,E]2 [A,E]4 [G,B,E]2 | %3
 [F,CE]3 [F,CE] [B,,B,]2 [B,,B,]2 |[M:3/4] [E,B,E]6 |[M:1/4] [E,B,E]2 | %6
[M:4/4] [B,D]2 [A,B,D]2 [G,B,]2 [G,B,E]2 | [F,B,D]2 [F,B,D]4 [E,B,E]2 | A,,2 z G, =A,,2 F,,2 | %9
[M:3/4] [B,,F,B,]6 |[M:1/4] [B,D]2 |[M:4/4] [A,C]3 [A,C] [A,C]2 [G,C=E]2 | %12
 [F,CF]2 [F,CF]4 [F,CF]2 | [A,C]3 [A,C] [A,C]2 [A,C]2 |[M:3/4] [G,=B,D]6 |[M:1/4] [F,B,D]2 | %16
[M:4/4] [E,B,E]2 [E,G,E]2 [G,,B,E]2 [G,,B,E]2 | [A,,B,]2 [A,,A,]4 [C,G,]2 | %18
 [F,,F,]2 [A,,F,]2 [B,,A,B,]2 [B,,A,B,]2 |[M:3/4] [E,G,B,]6 |] %20
V:3
 z4 z2 .[E,E]2 | x8 | x8 | x8 |[M:3/4] x6 |[M:1/4] x2 |[M:4/4] x8 | x8 | z2 A,,2 z4 |[M:3/4] x6 | %10
[M:1/4] x2 |[M:4/4] x8 | x8 | x8 |[M:3/4] x6 |[M:1/4] x2 |[M:4/4] x8 | x8 | x8 |[M:3/4] x6 |] %20
V:4
 x8 | x8 | x8 | x8 |[M:3/4] x6 |[M:1/4] x2 |[M:4/4] x8 | x8 | A,4[K:bass] z4 | %9
[M:3/4][K:treble] x6 |[M:1/4] x2 |[M:4/4] x8 | x8 | x8 |[M:3/4] x6 |[M:1/4] x2 |[M:4/4] x8 | x8 | %18
 x8 |[M:3/4] x6 |] %20

